X:1
T:Duet for Pipes
T:Duet for Pipes
T:from Mikrokosmos 3
T:Bartók Béla, Sz. 107
C:Bartók Béla, Sz. 107
%%score { ( 1 3 ) | ( 2 4 ) }
L:1/8
Q:1/4=72
M:2/4
K:C
V:1 treble nm="Klavier" snm="Klav."
V:3 treble 
V:2 treble 
V:4 treble 
V:1
"^Molto moderato,"!p! (3(cAG _AF | _G_B (3=G=A=B | _A2 F2 |[I:staff +1] D4) |[I:staff -1] x4 | x4 | %6
 x4 | x4 | z2 (3(cAG | _AF) z2 | (3(c=AG _AF | _G_B (3=G=A=B | _A2 F2 | _G4- | G2) (F2 | _A2 _G2 | %16
 F2 _A2 | _G4- | G2)!p! (3(__A_GA | _G2) (3(__AGA | _G3 __A | _G4)[Q:1/4=67][Q:1/4=60][Q:1/4=50] | %22
[Q:1/4=66]"^Più lento,"!mf! (_c2 _G2 | _A4- | A2) (_G_c | _A4- | (3A)(_c_G _A2- | (3A)_G_c _A2- | %28
 (3A_GF (3G_A__B | (3_c__B[Q:1/4=63]"^rallent."_A[Q:1/4=57] _GA |[Q:1/4=49] z4 | !>!.=c/ z/ z z2 |] %32
V:2
 x4 | x4 | x4 | x4 | (3:2:2_E2 D (3:2:2E !tenuto!D2 | (3(_EDC (3DC_B,) | (CD (3_EDC | (3DCG, CD | %8
 A,4- | A,2 _B,2 | A,2 =B,2) | (C4- | CD (3_EDC | (3DCA, CD | (3_EDC (3DCA, | CD (3_EDC | %16
 (3DCA, (3B,CD | (3_EDC D_C | _B,4) | (3(_C_B,C B,2) | (3(_C_B,C B,2- | B,_C_B,_E) | (D4- | %23
 D2 =A,2 | _E4- | E)(C D=A, | _E2- (3E)(A,D | _E2- (3E)(DA, | _E4- | E3 C | D4-) | D4 |] %32
V:3
 x4 | x4 | x4 | x4 | x4 | x4 | x4 | x4 | x4 | x4 | x4 | x4 | x4 | x4 | x4 | x4 | x4 | x4 | x4 | %19
 x4 | x4 | x4 | x4 | x4 | x4 | x4 | x4 | x4 | x4 | x4 | F4- | F4 |] %32
V:4
 x4 | x4 | x4 | x4 | x4 | x4 | x4 | x4 | x4 | x4 | x4 | x4 | x4 | x4 | x4 | x4 | x4 | x4 | x4 | %19
 x4 | x4 | x4 | x4 | x4 | x4 | x4 | x4 | x4 | x4 | x4 | z4 | !>!.A,/ z/ z z2 |] %32

